P2
# Created by IrfanView
68 44
255
20 80 80 80 80 156 80 80 156 80 80 80 80 80 80 80 80 
80 80 80 80 80 80 80 80 80 80 80 80 80 80 80 80 
80 0 0 0 0 0 0 0 0 0 0 0 0 0 0 0 
0 0 0 0 0 0 0 0 0 0 0 0 0 0 0 0 
0 0 26 20 80 80 80 80 156 156 80 156 156 80 80 80 80 80 80 80 
80 80 80 80 80 80 80 80 80 80 80 80 80 80 80 80 
80 0 0 0 0 0 0 0 0 0 0 0 0 0 0 0 
0 0 0 0 0 0 0 0 0 0 0 0 0 0 0 0 
0 0 26 20 80 80 80 80 156 80 156 156 80 156 80 80 80 80 80 80 
80 80 80 80 80 80 80 80 80 80 80 80 80 80 80 80 
80 0 0 0 0 0 0 0 0 0 0 0 0 0 0 0 
0 0 0 0 0 0 0 0 0 0 0 0 0 0 0 0 
0 0 26 20 80 80 80 80 156 156 156 80 156 156 156 80 80 80 80 80 
80 80 80 80 80 80 80 80 80 80 80 80 80 80 80 80 
80 0 0 0 0 0 0 0 0 0 0 0 0 0 0 0 
0 0 0 0 0 0 0 0 0 0 0 0 0 0 0 0 
0 0 26 20 80 80 80 80 156 80 80 156 156 80 80 156 80 80 80 80 
80 80 80 80 80 80 80 80 80 80 80 80 80 80 80 80 
80 0 0 0 0 0 0 0 0 0 0 0 0 0 0 0 
0 0 0 0 0 0 0 0 0 0 0 0 0 0 0 0 
0 0 26 20 80 80 80 80 156 156 80 156 80 156 80 156 156 80 80 80 
80 80 80 80 80 80 80 80 80 80 80 80 80 80 80 80 
80 0 0 0 0 0 0 0 0 0 0 0 0 0 0 0 
0 0 0 0 0 0 0 0 0 0 0 0 0 0 0 0 
0 0 26 20 80 80 80 80 156 80 156 156 156 156 156 156 80 156 80 80 
80 80 80 80 80 80 80 80 80 80 80 80 80 80 80 80 
80 0 0 0 0 0 0 0 0 0 0 0 0 0 0 0 
0 0 0 0 0 0 0 0 0 0 0 0 0 0 0 0 
0 0 26 20 80 80 80 80 156 156 156 80 80 80 80 80 156 156 156 80 
80 80 80 80 80 80 80 80 80 80 80 80 80 80 80 80 
80 0 0 0 0 0 0 0 0 0 0 0 0 0 0 0 
0 0 0 0 0 0 0 0 0 0 0 0 0 0 0 0 
0 0 26 20 80 80 80 80 156 80 80 156 80 80 80 80 156 80 80 156 
80 80 80 80 80 80 80 80 80 80 80 80 80 80 80 80 
80 0 0 0 0 0 0 0 0 0 0 0 0 0 0 0 
0 0 0 0 0 0 0 0 0 0 0 0 0 0 0 0 
0 0 26 20 80 80 80 80 156 156 80 156 156 80 80 80 156 156 80 156 
156 80 80 80 80 80 80 80 80 80 80 80 80 80 80 80 
80 0 0 0 0 0 0 0 0 0 0 0 0 0 0 0 
0 0 0 0 0 0 0 0 0 0 0 0 0 0 0 0 
0 0 26 20 80 80 80 80 156 80 156 156 80 156 80 80 156 80 156 156 
80 156 80 80 80 80 80 80 80 80 80 80 80 80 80 80 
80 0 0 0 0 0 0 0 0 0 0 0 0 0 0 0 
0 0 0 0 0 0 0 0 0 0 0 0 0 0 0 0 
0 0 26 20 80 80 80 80 156 156 156 80 156 156 156 80 156 156 156 80 
156 156 156 80 80 80 80 80 80 80 80 80 80 80 80 80 
80 0 0 0 0 0 0 0 0 0 0 0 0 0 0 0 
0 0 0 0 0 0 0 0 0 0 0 0 0 0 0 0 
0 0 26 20 80 80 80 80 156 80 80 156 156 80 80 156 156 80 80 156 
156 80 80 156 80 80 80 80 80 80 80 80 80 80 80 80 
80 0 0 0 0 0 0 0 0 0 0 0 0 0 0 0 
0 0 0 0 0 0 0 0 0 0 0 0 0 0 0 0 
0 0 26 20 80 80 80 80 156 156 80 156 80 156 80 156 80 156 80 156 
80 156 80 156 156 80 80 80 80 80 80 80 80 80 80 80 
80 0 0 0 0 0 0 0 0 0 0 0 0 0 0 0 
0 0 0 0 0 0 0 0 0 0 0 0 0 0 0 0 
0 0 26 20 80 80 80 80 156 80 156 156 156 156 156 156 156 156 156 156 
156 156 156 156 80 156 80 80 80 80 80 80 80 80 80 80 
80 0 0 0 0 0 0 0 0 0 0 0 0 0 0 0 
0 0 0 0 0 0 0 0 0 0 0 0 0 0 0 0 
0 0 26 20 80 80 80 80 156 156 156 80 80 80 80 80 80 80 80 80 
80 80 80 80 156 156 156 80 80 80 80 80 80 80 80 80 
80 0 0 0 0 0 0 0 0 0 0 0 0 0 0 0 
0 0 0 0 0 0 0 0 0 0 0 0 0 0 0 0 
0 0 26 20 80 80 80 80 156 80 80 156 80 80 80 80 80 80 80 80 
80 80 80 80 156 80 80 156 80 80 80 80 80 80 80 80 
80 0 0 0 0 0 0 0 0 0 0 0 0 0 0 0 
0 0 0 0 0 0 0 0 0 0 0 0 0 0 0 0 
0 0 26 20 80 80 80 80 156 156 80 156 156 80 80 80 80 80 80 80 
80 80 80 80 156 156 80 156 156 80 80 80 80 80 80 80 
80 0 0 0 0 0 0 0 0 0 0 0 0 0 0 0 
0 0 0 0 0 0 0 0 0 0 0 0 0 0 0 0 
0 0 26 20 80 80 80 80 156 80 156 156 80 156 80 80 80 80 80 80 
80 80 80 80 156 80 156 156 80 156 80 80 80 80 80 80 
80 0 0 0 0 0 0 0 0 0 0 0 0 0 0 0 
0 0 0 0 0 0 0 0 0 0 0 0 0 0 0 0 
0 0 26 20 80 80 80 80 156 156 156 80 156 156 156 80 80 80 80 80 
80 80 80 80 156 156 156 80 156 156 156 80 80 80 80 80 
80 0 0 0 0 0 0 0 0 0 0 0 0 0 0 0 
0 0 0 0 0 0 0 0 0 0 0 0 0 0 0 0 
0 0 26 20 80 80 80 80 156 80 80 156 156 80 80 156 80 80 80 80 
80 80 80 80 156 80 80 156 156 80 80 156 80 80 80 80 
80 0 0 0 0 0 0 0 0 0 0 0 0 0 0 0 
0 0 0 0 0 0 0 0 0 0 0 0 0 0 0 0 
0 0 26 20 80 80 80 80 156 156 80 156 80 156 80 156 156 80 80 80 
80 80 80 80 156 156 80 156 80 156 80 156 156 80 80 80 
80 0 0 0 0 0 0 0 0 0 0 0 0 0 0 0 
0 0 0 0 0 0 0 0 0 0 0 0 0 0 0 0 
0 0 26 20 80 80 80 80 156 80 156 156 156 156 156 156 80 156 80 80 
80 80 80 80 156 80 156 156 156 156 156 156 80 156 80 80 
80 0 0 0 0 0 0 0 0 0 0 0 0 0 0 0 
0 0 0 0 0 0 0 0 0 0 0 0 0 0 0 0 
0 0 26 20 80 80 80 80 156 156 156 80 80 80 80 80 156 156 156 80 
80 80 80 80 156 156 156 80 80 80 80 80 156 156 156 80 
80 0 0 0 0 0 0 0 0 0 0 0 0 0 0 0 
0 0 0 0 0 0 0 0 0 0 0 0 0 0 0 0 
0 0 26 20 80 80 80 80 156 80 80 156 80 80 80 80 156 80 80 156 
80 80 80 80 156 80 80 156 80 80 80 80 156 80 80 156 
80 0 0 0 0 0 0 0 0 0 0 0 0 0 0 0 
0 0 0 0 0 0 0 0 0 0 0 0 0 0 0 0 
0 0 26 20 80 80 80 80 156 156 80 156 156 80 80 80 156 156 80 156 
156 80 80 80 156 156 80 156 156 80 80 80 156 156 80 156 
156 0 0 0 0 0 0 0 0 0 0 0 0 0 0 0 
0 0 0 0 0 0 0 0 0 0 0 0 0 0 0 0 
0 0 26 20 156 82 156 80 80 80 80 80 80 80 80 80 80 80 80 80 
80 80 80 80 80 80 80 80 80 80 80 80 80 80 80 80 
80 156 0 0 0 0 0 0 0 0 0 0 0 0 0 0 
0 0 0 0 0 0 0 0 0 0 0 0 0 0 0 0 
0 0 26 20 147 156 82 156 80 80 80 80 80 80 80 80 80 80 80 80 
80 80 80 80 80 80 80 80 80 80 80 80 80 80 80 80 
80 80 156 0 0 0 0 0 0 0 0 0 0 0 0 0 
0 0 0 0 0 0 0 0 0 0 0 0 0 0 0 0 
0 0 26 20 77 47 77 156 82 156 80 80 80 80 80 80 80 80 80 80 
80 80 80 80 80 80 80 80 80 80 80 80 80 80 80 80 
80 80 80 80 156 0 0 0 0 0 0 0 0 0 0 0 
0 0 0 0 0 0 0 0 0 0 0 0 0 0 0 0 
0 0 26 20 47 226 156 11 11 156 82 156 80 80 80 80 80 80 80 80 
80 80 80 80 80 80 80 80 80 80 80 80 80 80 80 80 
80 80 80 80 80 80 156 0 0 0 0 0 0 0 0 0 
0 0 0 0 0 0 0 0 0 0 0 0 0 0 0 0 
0 0 26 20 11 226 80 11 77 115 192 156 82 156 80 80 80 80 80 80 
80 80 80 80 80 80 80 80 80 80 80 80 80 80 80 80 
80 80 80 80 80 80 80 80 156 0 0 0 0 0 0 0 
0 0 0 0 0 0 0 0 0 0 0 0 0 0 0 0 
0 0 26 20 226 11 147 77 115 147 11 11 80 156 82 156 80 80 80 80 
80 80 80 80 80 80 80 80 80 80 80 80 80 80 80 80 
80 80 80 80 80 80 80 80 80 80 156 0 0 0 0 0 
0 0 0 0 0 0 0 0 0 0 0 0 0 0 0 0 
0 0 26 20 192 147 192 11 192 189 47 226 77 11 147 156 82 156 80 80 
80 80 80 80 80 80 80 80 80 80 80 80 80 80 80 80 
80 80 80 80 80 80 80 80 80 80 80 80 156 0 0 0 
0 0 0 0 0 0 0 0 0 0 0 0 0 0 0 0 
0 0 26 20 192 192 147 115 77 115 189 192 11 47 11 189 77 156 82 156 
80 80 80 80 80 80 80 80 80 80 80 80 80 80 80 80 
80 80 80 80 80 80 80 80 80 80 80 80 80 80 156 0 
0 0 0 0 0 0 0 0 0 0 0 0 0 0 0 0 
0 0 26 20 156 147 47 226 80 192 80 156 147 147 147 47 156 147 11 156 
82 156 80 80 80 80 80 80 80 80 80 80 80 80 80 80 
80 80 80 80 80 80 80 80 80 80 80 80 80 80 80 80 
156 0 0 0 0 0 0 0 0 0 0 0 0 0 0 0 
0 0 26 20 156 47 80 80 189 11 77 226 47 192 189 77 189 189 189 156 
192 156 82 156 80 80 80 80 80 80 80 80 80 80 80 80 
80 80 80 80 80 80 80 80 80 80 80 80 80 80 80 80 
80 80 156 0 0 0 0 0 0 0 0 0 0 0 0 0 
0 0 26 20 156 192 156 47 115 77 77 47 11 47 189 80 47 77 189 192 
147 147 80 156 82 156 80 80 80 80 80 80 80 80 80 80 
80 80 80 80 80 80 80 80 80 80 80 80 80 80 80 80 
80 80 80 80 156 0 0 0 0 0 0 0 0 0 0 0 
0 0 26 20 189 147 11 115 115 80 189 80 192 156 147 226 77 156 156 192 
226 192 147 147 156 82 156 80 80 80 80 80 80 80 80 80 
80 80 80 80 80 80 80 80 80 80 80 80 80 80 80 80 
80 80 80 80 80 156 0 0 0 0 0 0 0 0 0 0 
0 0 26 20 115 189 115 77 77 11 11 226 80 115 77 147 115 192 47 80 
189 147 77 226 226 77 156 82 156 80 80 80 80 80 80 80 
80 80 80 80 80 80 80 80 80 80 80 80 80 80 80 80 
80 80 80 80 80 80 80 156 0 0 0 0 0 0 0 0 
0 0 26 20 77 11 77 156 80 147 156 147 147 189 192 192 77 77 115 226 
192 189 147 189 226 192 192 11 156 82 156 80 80 80 80 80 
80 80 80 80 80 80 80 80 80 80 80 80 80 80 80 80 
80 80 80 80 80 80 80 80 80 156 0 0 0 0 0 0 
0 0 26 20 47 192 226 226 11 115 77 226 226 80 192 115 226 77 80 47 
226 115 192 156 226 47 156 156 47 192 156 82 156 80 80 80 
80 80 80 80 80 80 80 80 80 80 80 80 80 80 80 80 
80 80 80 80 80 80 80 80 80 80 80 156 0 0 0 0 
0 0 26 20 11 192 226 189 156 156 47 147 192 115 47 192 156 77 192 80 
226 47 156 11 192 189 11 11 226 226 192 80 156 82 156 80 
80 80 80 80 80 80 80 80 80 80 80 80 80 80 80 80 
80 80 80 80 80 80 80 80 80 80 80 80 80 156 0 0 
0 0 26 20 226 11 226 226 77 147 226 147 192 80 192 189 192 47 156 192 
11 147 11 77 47 115 147 11 189 80 147 189 192 147 156 82 
156 80 80 80 80 80 80 80 80 80 80 80 80 80 80 80 
80 80 80 80 80 80 80 80 80 80 80 80 80 80 80 156 
0 0 26 20 192 115 147 156 192 147 226 147 189 11 11 226 77 189 226 47 
156 156 192 47 115 192 147 47 115 115 77 192 226 156 115 77 
156 82 156 80 80 80 80 80 80 80 80 80 80 80 80 80 
80 80 80 80 80 80 80 80 80 80 80 80 80 80 80 80 
80 156 0 